X: 23910
T: Loch Lomond
R: reel
M: 4/4
K: Amajor
||EF|A2 AB c2 BA|B2 BA F2 EF|A2 A2 A2 ce|f4 e2 e2|
f2 fe c2 ce|dcBA F2 EF|A<A c<e f2 ec|B4 A2||

